svg/furkot/icomoon/share.svg

<svg viewBox="0 0 512 512" xmlns="http://www.w3.org/2000/svg"><path d="m432 352c-22.576 0-42.96 9.368-57.504 24.416l-215.504-107.752c.656-4.128 1.008-8.352 1.008-12.664s-.352-8.536-1.008-12.664l215.504-107.752c14.544 15.048 34.928 24.416 57.504 24.416 44.184 0 80-35.816 80-80s-35.816-80-80-80-80 35.816-80 80c0 4.312.352 8.536 1.008 12.664l-215.504 107.752c-14.544-15.048-34.928-24.416-57.504-24.416-44.184 0-80 35.816-80 80s35.816 80 80 80c22.576 0 42.96-9.368 57.504-24.416l215.504 107.752c-.656 4.128-1.008 8.352-1.008 12.664 0 44.184 35.816 80 80 80s80-35.816 80-80-35.816-80-80-80z"/></svg>

<svg xmlns="http://www.w3.org/2000/svg" viewBox="0 0 512 512"><path d="M432 352C409.424 352 389.04 361.368 374.496 376.416L158.992 268.664C159.648 264.536 160 260.312 160 256S159.648 247.464 158.992 243.336L374.496 135.584C389.04 150.632 409.424 160 432 160 476.184 160 512 124.184 512 80S476.184 0 432 0 352 35.816 352 80C352 84.312 352.352 88.536 353.008 92.664L137.504 200.416C122.96 185.368 102.576 176 80 176 35.816 176 0 211.816 0 256S35.816 336 80 336C102.576 336 122.96 326.632 137.504 311.584L353.008 419.336C352.352 423.464 352 427.688 352 432 352 476.184 387.816 512 432 512S512 476.184 512 432C512 387.816 476.184 352 432 352Z"/></svg>
